!!!OTL: Abtrumpfen zwischen Burschen und M&auml;dchen (93a), S. 239
!!!id: T0253E
**kern
*clefG2
*k[]
*G:
{4g
=1
4g
4d
4b
=2
4b
4g}
=3
{4dd
=4
8ee
8dd
8cc
8b
8a
8g
=5
4dd
4dd}
=6
{8ee
8dd
=7
4cc
4a
8d
8g
=8
8g
8b
4b}
=9
{8ee
8dd
=10
4cc
4a
8d
8g
=11
8g
8b
4b}
=12
{8g
8g
=13
4.ee
8ee
4ee
=14
8ee
8dd
4dd}
=15
{8b
8dd
=16
4dd
4cc
8a
8cc
=17
4cc
4b}
==
*-
!!!minrhy: 8
!!!meters: 3/4 ]  ZZ[6
!!!cut1: Abtrumpfen zwischen Burschen und M&auml;dchen (93a), S. 239
!!!cut2: 3. Melodievariante
!!!reg: Luxemburg
!!!trd: Singendes Volk, Esch-Alzette 1937 posth.
!!!rhy1: X_  X_X_X_  X_X_
!!!rhy2: X_  XXXXXX  X_X_
!!!key: T0253E 08  G 3/4 ]  ZZ[6
!!!mod: SECHSTONSKALA DUR ?]  AMBITUS[9
!!!kad: 153353
!!!akz: 13_65_41_41_66_54_
!!!fot: 'a__b__c__c__d__e__
!!!for: 'a__b__c__c__d__e__
!!!fok: '^__V__Vd_Vd_/__^__
!! PHRAS[AUFTAKTIG]
!!!fkt: Liebeslieder
!!!bem1: Blascheid, fff Barbara Kaisen-Kolbach;
!!!bem2: (93b)- Boxhorn, mitgeteilt:
!!!bem3: hhh Heinrich Godefroid (Lehrer)
!! THILL, Mathias:
!! PR[48] 2K[0] 2G[0] 3K[5] 3G[0] 4A[0] 4Ü[0] 5A[5] 6K[0] 6G[8]
!! 7K[0] 7G[0] 8A[0] MEHR[0] SI[18] ABS[40] SR[0] SP[18]
!! ST[12] 2k[5] 2g[15] 3k[5] 3g[3] 4d[3] 4ü[0] 5d[5] 6k[0] 6g[0]
!! 7k[0] 7g[0] 8d[0] mehr[0] si[35] dm[-17] sr[20] sp[15]
!! 1F[39] 2F[54] 3F[7] 4F[0] LF[0] 2P[0] 3P[0] 4P[0] TRI[0] DF[3] AB[41]
!! TF[0] U3K[0] U3[0] U4[0] U4Ü[0] U5[2] U6K[0] U6[0] U7K[0] U7[0]
!! N1[29] N2K[0] N2[5] N3K[0] N3[15] N4[10] N4Ü[0] N5[27] N6K[0] N6[12]
!!!n7k: 0] N7[0] O1[0] O2K[0] O2[0] O3K[0] O3[0] HÖ[0
!!!RNB: symbol: &auml;      = a umlaut  (UTF-8: Å„)
